X: 2234
T: MARRY THE PIPER GIRLS
Q: "Irish Jig."
R: Jig.
%R: jig
B: James Kerr "Merry Melodies" v.2 p.26 #234
Z: 2016 John Chambers <jc:trillian.mit.edu>
M: 6/8
L: 1/8
K: G
|:\
vG2vG uG2uB | ABA uA2uB | G2G G2B | d3 g3 |\
GAG G2B | ABA A2f | g2e edB | d3 d2 :|
|: ud |\
gag gfe | ded dcB | gfg aga | b3 e2ud |\
gag gfe | ded dcB | vg2ve edB | ded cBA :|
